!!!COM: Mozart	
!!!OTL: 12 Variations on "Ah Vous dirais-je, Maman" for the Piano,	
!!!Variation: 11 b	
**kern	**kern
*M2/4	*M2/4
=-	=-
16GLL	(8.ggL
16c 16e	.
16c 16e	.
16cJJ 16e	32aaLL
.	32bbJJJ
16GLL	16cccLL)
16c 16e	16bb'
16c 16e	16aa'
16cJJ 16e	16gg'JJ
=	=
16GLL	(16ggLL
16d 16f	32ffJJk)
.	32r
16d 16f	(16eeLL
16dJJ 16f	32ddJJk)
.	32r
16GLL	(8ccL
16d 16f	.
16d 16f	16bJk)
16dJJ 16f	16r
=	=
8.eL 8.g	(8.ccL
16BJk 16g	16ddJk)
8.cL 8.g	(8.eeL
16FJk 16d	16ffJk)
=	=
(4G 4c	(8.eeL
.	32ffLL
.	32eeJJJ
8G) 8B	16ddLL)
.	(16ee'
8r	16ff'
.	16ff#'JJ)
=	=
16GLL	(8.ggL
16e 16g	.
16e 16g	.
16eJJ 16g	32aaLL
.	32bbJJJ
16GLL	32cccLLL
.	32ddd
16e 16g	32eee
.	32dddJJ
16e 16g	32cccLL
.	32bb
16eJJ 16g	32aa
.	32ggJJJ)
=	=
16GLL	(32ggLLL
.	32ff)
16d 16f	(32fff
.	32eeeJJ)
16d 16f	(32eeeLL
.	32ddd)
16dJJ 16f	(32ddd
.	32cccJJJ)
16GLL	(32cccLLL
.	32bb)
16B 16d	(32bb
.	32aaJJ)
16B 16d	(32aaLL
.	32gg)
16BJJ 16d	(32gg
.	32ffJJJ)
=	=
8c 8e	(16.eeLL
.	32cccJk)
4A; 4c; 4f#;	[8ccc;J
.	32cccLLL]
.	(32ddd
.	32eee
.	32dddJ
8r	16.ccc)
.	32ff#JJk
=	=
(4G 4c	(4aa
8G) 8B	8gg)
8r;	48r
.	(48aaLLL
.	48ggJJ
.	48ffLL
.	48ee
.	48ddJJJ)
=	=
*-	*-
